sources/design/Outline/w.svg

<svg:svg xmlns:cc="http://creativecommons.org/ns#" xmlns:dc="http://purl.org/dc/elements/1.1/" xmlns:inkscape="http://www.inkscape.org/namespaces/inkscape" xmlns:rdf="http://www.w3.org/1999/02/22-rdf-syntax-ns#" xmlns:sodipodi="http://sodipodi.sourceforge.net/DTD/sodipodi-0.dtd" xmlns:svg="http://www.w3.org/2000/svg" xml:space="preserve" width="1000" height="1000" version="1.1" style="clip-rule:evenodd;fill-rule:evenodd;image-rendering:optimizeQuality;shape-rendering:geometricPrecision;text-rendering:geometricPrecision" viewBox="0 0 1000 1000" id="svg10" sodipodi:docname="w.svg" inkscape:version="1.1.1 (3bf5ae0d25, 2021-09-20)"><svg:text text-anchor="middle" x="286.24982" y="142.74805" id="top" inkscape:label="top" style="clip-rule:evenodd;fill-rule:evenodd;image-rendering:optimizeQuality;shape-rendering:geometricPrecision;text-rendering:geometricPrecision">✛</svg:text><svg:metadata id="metadata14"><rdf:RDF><cc:Work rdf:about=""><dc:format>image/svg+xml</dc:format><dc:type rdf:resource="http://purl.org/dc/dcmitype/StillImage" /></cc:Work></rdf:RDF></svg:metadata><sodipodi:namedview pagecolor="#ffffff" bordercolor="#666666" borderopacity="1" objecttolerance="10" gridtolerance="10" guidetolerance="10" inkscape:pageopacity="0" inkscape:pageshadow="2" inkscape:window-width="1920" inkscape:window-height="1009" id="namedview12" showgrid="false" inkscape:zoom="0.84890884" inkscape:cx="508.29957" inkscape:cy="494.75277" inkscape:window-x="0" inkscape:window-y="0" inkscape:window-maximized="1" inkscape:current-layer="svg10" showguides="true" inkscape:guide-bbox="true" inkscape:document-rotation="0" inkscape:pagecheckerboard="0"><sodipodi:guide position="0,1000" orientation="0,1" id="guide16" inkscape:label="" inkscape:locked="true" inkscape:color="rgb(0,0,255)" /><sodipodi:guide position="1763.3122,2036.1693" orientation="1000,0" id="guide18" /><sodipodi:guide position="0,200" orientation="0,1" id="guide20" inkscape:label="base" inkscape:locked="true" inkscape:color="rgb(0,0,255)" /><inkscape:grid type="xygrid" id="grid24" originx="-473.37552" originy="-489.69235" /><sodipodi:guide position="0,0" orientation="0,1" id="guide34" inkscape:label="bottom" inkscape:locked="true" inkscape:color="rgb(0,0,255)" /><sodipodi:guide position="225.05109,1693.3186" orientation="0,1" id="guide44" inkscape:label="" inkscape:locked="false" inkscape:color="rgb(0,0,255)" /><sodipodi:guide position="0,900" orientation="0,1" id="guide46" inkscape:label="" inkscape:locked="true" inkscape:color="rgb(0,0,255)" /><sodipodi:guide position="596.84334,645.62796" orientation="1,0" id="guide841" inkscape:label="width" />    <sodipodi:guide position="236.77454,799.74293" orientation="0,-1" id="guide853" /></sodipodi:namedview>
 <svg:defs id="defs4"><inkscape:path-effect effect="fillet_chamfer" id="path-effect855" is_visible="true" lpeversion="1" satellites_param="F,0,0,1,0,21.053378,0,1 @ F,0,0,1,0,21.053378,0,1 @ F,0,0,1,0,0,0,1 @ F,0,0,1,0,0,0,1 @ F,0,0,1,0,0,0,1 @ F,0,0,1,0,0,0,1 @ F,0,0,1,0,0,0,1 @ F,0,0,1,0,0,0,1 @ F,0,0,1,0,0,0,1 @ F,0,0,1,0,0,0,1 @ F,0,0,1,0,0,0,1 @ F,0,0,1,0,0,0,1 @ F,0,0,1,0,0,0,1 @ F,0,0,1,0,0,0,1 @ F,0,0,1,0,0,0,1 @ F,0,0,1,0,0,0,1 @ F,0,0,1,0,0,0,1 @ F,0,0,1,0,0,0,1 @ F,0,0,1,0,0,0,1 @ F,0,0,1,0,0,0,1 @ F,0,0,1,0,21.053378,0,1 @ F,0,0,1,0,21.053378,0,1 @ F,0,0,1,0,0,0,1 @ F,0,0,1,0,0,0,1 @ F,0,0,1,0,0,0,1 @ F,0,0,1,0,0,0,1 @ F,0,0,1,0,0,0,1 @ F,0,0,1,0,0,0,1 @ F,0,0,1,0,0,0,1 @ F,0,0,1,0,0,0,1 @ F,0,0,1,0,0,0,1 @ F,0,0,1,0,0,0,1 @ F,0,1,1,0,13.285186,0,1 @ F,0,1,1,0,13.285186,0,1 @ F,0,0,1,0,0,0,1 @ F,0,0,1,0,0,0,1 @ F,0,0,1,0,0,0,1 @ F,0,0,1,0,0,0,1 @ F,0,0,1,0,0,0,1 @ F,0,0,1,0,0,0,1 @ F,0,0,1,0,0,0,1 @ F,0,0,1,0,0,0,1 @ F,0,0,1,0,0,0,1" unit="px" method="auto" mode="F" radius="0" chamfer_steps="1" flexible="false" use_knot_distance="true" apply_no_radius="true" apply_with_radius="true" only_selected="true" hide_knots="false" /><inkscape:path-effect effect="fillet_chamfer" id="path-effect854" is_visible="true" lpeversion="1" satellites_param="F,0,0,1,0,26.153956,0,1 @ F,0,0,1,0,18.646389,0,1 @ F,0,0,1,0,0,0,1 @ F,0,0,1,0,0,0,1 @ F,0,0,1,0,0,0,1 @ F,0,0,1,0,0,0,1 @ F,0,0,1,0,0,0,1 @ F,0,0,1,0,0,0,1 @ F,0,0,1,0,0,0,1 @ F,0,0,1,0,0,0,1 @ F,0,0,1,0,0,0,1 @ F,0,0,1,0,0,0,1 @ F,0,0,1,0,0,0,1 @ F,0,0,1,0,0,0,1 @ F,0,0,1,0,0,0,1 @ F,0,0,1,0,0,0,1 @ F,0,0,1,0,0,0,1 @ F,0,0,1,0,0,0,1 @ F,0,0,1,0,0,0,1 @ F,0,0,1,0,30.187822,0,1 @ F,0,0,1,0,24.012867,0,1 @ F,0,0,1,0,0,0,1 @ F,0,0,1,0,0,0,1 @ F,0,0,1,0,0,0,1 @ F,0,0,1,0,0,0,1 @ F,0,0,1,0,0,0,1 @ F,0,0,1,0,0,0,1 @ F,0,0,1,0,0,0,1 @ F,0,0,1,0,0,0,1 @ F,0,0,1,0,0,0,1 @ F,0,1,1,0,41.669128,0,1 @ F,0,0,1,0,38.580374,0,1 @ F,0,0,1,0,0,0,1 @ F,0,0,1,0,0,0,1 @ F,0,0,1,0,0,0,1 @ F,0,0,1,0,0,0,1 @ F,0,0,1,0,0,0,1 @ F,0,0,1,0,0,0,1 @ F,0,0,1,0,0,0,1 @ F,0,0,1,0,0,0,1 @ F,0,0,1,0,0,0,1" unit="px" method="auto" mode="F" radius="0" chamfer_steps="1" flexible="false" use_knot_distance="true" apply_no_radius="true" apply_with_radius="true" only_selected="true" hide_knots="false" /><inkscape:path-effect effect="spiro" id="path-effect853" is_visible="true" lpeversion="1" /><inkscape:path-effect effect="spiro" id="path-effect928" is_visible="true" lpeversion="1" /><inkscape:path-effect effect="spiro" id="path-effect921" is_visible="true" lpeversion="1" /><inkscape:path-effect effect="spiro" id="path-effect917" is_visible="true" lpeversion="1" /><inkscape:path-effect effect="spiro" id="path-effect849" is_visible="true" lpeversion="1" /><inkscape:path-effect effect="spiro" id="path-effect851" is_visible="true" lpeversion="1" />
  <svg:style type="text/css" id="style2">
   
    .fil0 {fill:#EF7F1A;fill-rule:nonzero}
   
  </svg:style>
 <inkscape:path-effect effect="spiro" id="path-effect1214" is_visible="true" lpeversion="1" /><inkscape:path-effect effect="spiro" id="path-effect1195" is_visible="true" lpeversion="1" /><inkscape:path-effect effect="spiro" id="path-effect992" is_visible="true" lpeversion="1" /><inkscape:path-effect effect="spiro" id="path-effect1060" is_visible="true" lpeversion="1" /><inkscape:path-effect effect="spiro" id="path-effect1047" is_visible="true" lpeversion="1" /><inkscape:path-effect effect="spiro" id="path-effect1085" is_visible="true" lpeversion="1" /><inkscape:path-effect effect="spiro" id="path-effect1286" is_visible="true" lpeversion="1" /><inkscape:path-effect effect="spiro" id="path-effect117" is_visible="true" lpeversion="1" /></svg:defs>
 
<svg:g id="path115"><svg:path style="color:#000000;fill:#1a5fb4;fill-rule:nonzero;stroke-linecap:round;stroke-linejoin:round;-inkscape-stroke:none;paint-order:fill stroke markers" d="M 518.87891,151.57422 C 511.76412,151.56622 504.71455000000003,153.12136 498.51953000000003,155.9707 L 409.11914,197.08983999999998 C 396.68937,202.80679999999998 386.19139,214.45484 382.80273,228.27148 C 379.41408,242.08813 383.15238999999997,256.74159 391.0293,267.55664 C 412.24742,296.68927 430.12411,328.28527 444.14648,361.47461 C 480.10753,446.59022 490.3883,542.7183299999999 476.25,634.76367 C 474.35897,647.07493 472.04242,656.77002 468.67578,663.01562 C 467.02637999999996,666.0755 465.12618999999995,668.37591 463.49023,669.75586 C 461.93541,671.06737 460.31723,671.71806 459.60742,671.85352 C 458.95418,671.97817 457.47592,671.98879 455.84766,671.50586 C 454.14692,671.00143 451.94494000000003,669.90972 449.71289,668.18359 C 445.16185,664.6641 440.22559,658.18965 435.52734000000004,649.45508 C 423.48841000000004,627.07336 416.74688000000003,600.21493 412.30664,571.59961 C 407.85744,542.92655 405.57757000000004,512.11344 399.89648,479.99023 C 392.68651,439.22202 380.24738,399.42805 362.97656,361.8125 C 352.99187,340.066 322.46201,331.56768 302.66992,344.17578 L 242.53125,382.48632999999995 C 224.06454,394.2501199999999 217.20906,409.38769999999994 218.69922,430.29101999999995 C 219.49869999999999,441.50581999999997 219.75153,452.76231999999993 219.45508,463.99999999999994 C 218.65026,494.50837999999993 213.75733,525.52306 206.78711,556.6875 C 198.72124000000002,592.75065 187.90772,626.2205 168.875,651.05273 C 164.56471,656.67642 160.60136,660.63974 157.40039,662.76562 C 154.47353999999999,664.70946 151.77328,665.12353 151.3457,665.0918 C 150.86201,665.0559000000001 147.64254,663.91022 144.69922,660.81055 C 141.42718,657.36469 137.85499,651.43669 134.15039,643.4492200000001 C 114.10174999999998,600.22242 107.86683,549.7126900000001 110.74219,499.23437000000007 C 113.44412,451.8006200000001 123.78365,404.2673900000001 138.39648,357.55078000000003 C 148.15661,326.34807 159.73,295.70725000000004 173.03516,265.84180000000003 C 184.12608,240.94652000000002 169.10465,207.52837000000005 142.57227,199.82812000000004 L 64.998047,177.31445 C 38.318197,169.57141 8.0096426,188.00718999999998 2.984375,215.55858999999998 C -9.7481862,285.3658 -17.710996,356.03777 -20.824219,426.92969 C -24.284444,505.72327 -21.795282,586.21794 -5.0546875,665.33008 C 2.3996284,700.55743 13.276094,738.85687 38.21875,771.9667999999999 C 50.748881,788.5998199999999 66.693675,803.49916 86.205078,814.06445 C 105.83667,824.6948199999999 128.5825,830.57666 152.17969,828.85547 C 180.78721,826.76882 205.90263,813.97433 225.69141,797.11914 C 245.26997,780.443 259.4259,760.27113 270.7793,740.37109 C 286.27410999999995,713.21206 297.4853,684.76487 306.17773,655.88477 C 313.63629,680.93031 322.08396,706.02842 332.66016,730.79492 C 340.76627,749.77718 350.71689000000003,770.2889200000001 366.59375,788.75977 C 382.7187,807.51924 404.91881,823.63931 432.72266,828.62305 C 458.76486,833.29102 484.00481,827.07307 504.99023,815.49805 C 525.69798,804.07619 541.71858,787.97639 554.5,771.25977 C 590.70452,723.90844 605.35383,666.36296 610.96289,611.75391 C 621.96576,504.6314 600.97834,400.27529 582.74414,300.4707 C 576.03272,263.73588 569.542,226.96076 563.26953,190.14844 C 560.98132,176.71922999999998 552.5229400000001,163.38294 539.62305,156.56445 C 533.1731000000001,153.15520999999998 525.99369,151.58237 518.87891,151.57422 M 507.25781,217.99414000000002 C 512.61962,249.10292 518.04922,280.20044 523.72266,311.25391 C 542.05729,411.60822 561.06431,510.33842000000004 551.27734,605.62305 C 546.33602,653.73116 533.34943,700.1398300000001 506.83594,734.81641 C 497.56674,746.93945 487.09267,756.84702 476.01171999999997,762.95898 C 465.20844999999997,768.91779 453.00053999999994,771.3017 443.30859,769.56445 C 432.88953,767.69687 421.28341,760.3392 412.09569999999997,749.65039 C 402.65990999999997,738.67295 394.98411,723.96231 387.83984,707.23242 C 367.06074,658.57356 354.18877,604.94446 339.70508,550.0 C 337.49815,541.62793 335.12662,533.30018 332.85547,524.94531 C 334.98796000000004,510.55449999999996 336.98283000000004,496.14424999999994 338.98242000000005,481.73436999999996 C 339.56012000000004,484.64296999999993 340.2961700000001,487.51989 340.81250000000006,490.43944999999997 C 345.79231000000004,518.59735 348.07818000000003,548.98122 353.01562000000007,580.8007799999999 C 357.96202000000005,612.6780799999999 365.72555000000006,646.3464399999999 382.6855500000001,677.87695 C 389.4289000000001,690.4136 398.4524700000001,704.39028 413.00781000000006,715.64648 C 420.3289500000001,721.3081999999999 428.90979000000004,726.09973 438.78711000000004,729.0293 C 448.73691,731.98036 459.64424,732.93007 470.85352000000006,730.79102 C 483.1249700000001,728.44926 493.62892000000005,722.82854 502.17578000000003,715.61914 C 510.64151000000004,708.4781800000001 516.87088,700.05951 521.49219,691.4863300000001 C 530.66696,674.4658000000001 533.43293,657.6864400000001 535.55469,643.87305 C 551.3008000000001,541.36027 540.0623800000001,434.32826 499.41602000000006,338.12305000000003 C 485.61709,305.4626 468.3562,274.34283 448.3418,245.09375 L 507.25781,217.99414000000002 M 60.029297,238.3457 L 112.9668,253.71094 C 100.94411000000001,281.80566999999996 90.254377,310.47118 81.13085900000002,339.63867 C 65.47002900000001,389.70567 53.90497900000001,442.01224 50.839844000000014,495.82227 C 47.56100700000001,553.38393 54.23591600000002,613.75187 79.71875000000001,668.6953100000001 C 84.47324400000001,678.9464600000001 90.61770800000002,690.99166 101.18945000000002,702.1250000000001 C 112.08992000000002,713.6045200000001 127.34028000000002,723.4735700000001 146.90625000000003,724.9257800000001 C 164.02115000000003,726.1960700000002 178.86715000000004,720.5341700000001 190.59375000000003,712.7460900000001 C 202.04623000000004,705.1400700000002 210.10551000000004,695.8886500000001 216.49609000000004,687.5507800000001 C 241.64124000000004,654.7435900000002 253.87539000000004,617.0655500000001 262.49414,581.2343700000001 C 253.28716000000003,627.8847400000001 240.61025,672.1717900000001 218.66406,710.6386700000002 C 209.38752,726.8984200000002 198.89928,741.1251000000002 186.78516000000002,751.4433600000002 C 174.88124000000002,761.5825800000002 160.72939000000002,768.0717900000002 147.81641000000002,769.0136700000002 C 137.19624000000002,769.7883100000001 125.31296000000002,767.0087600000002 114.77539000000002,761.3027300000001 C 104.11763000000002,755.5316300000001 94.25378000000002,746.6349700000001 86.14062500000001,735.8652300000001 C 69.796709,714.16964 60.397278,684.81088 53.646484,652.9082 C 38.368879,580.70981 35.793955,505.28106 39.119141,429.5625 C 41.934155,365.46116 49.02967,301.5607 60.029297,238.3457 M 279.0918,430.33398 C 279.07099999999997,430.38868 278.80361999999997,430.6129 278.76367,430.66211 C 278.76167,430.62370999999996 278.75966999999997,430.58531 278.75767,430.54687 L 279.0918,430.33398" id="path22349" /></svg:g></svg:svg>

<svg:svg xmlns:cc="http://creativecommons.org/ns#" xmlns:dc="http://purl.org/dc/elements/1.1/" xmlns:inkscape="http://www.inkscape.org/namespaces/inkscape" xmlns:rdf="http://www.w3.org/1999/02/22-rdf-syntax-ns#" xmlns:sodipodi="http://sodipodi.sourceforge.net/DTD/sodipodi-0.dtd" xmlns:svg="http://www.w3.org/2000/svg" xml:space="preserve" width="1000" height="1000" version="1.1" style="clip-rule:evenodd;fill-rule:evenodd;image-rendering:optimizeQuality;shape-rendering:geometricPrecision;text-rendering:geometricPrecision" viewBox="0 0 1000 1000" id="svg10" sodipodi:docname="w.svg" inkscape:version="1.1.1 (3bf5ae0d25, 2021-09-20)"><svg:text text-anchor="middle" x="286.24982" y="142.74805" id="top" inkscape:label="top" style="clip-rule:evenodd;fill-rule:evenodd;image-rendering:optimizeQuality;shape-rendering:geometricPrecision;text-rendering:geometricPrecision">✛</svg:text><svg:metadata id="metadata14"><rdf:RDF><cc:Work rdf:about=""><dc:format>image/svg+xml</dc:format><dc:type rdf:resource="http://purl.org/dc/dcmitype/StillImage" /></cc:Work></rdf:RDF></svg:metadata><sodipodi:namedview pagecolor="#ffffff" bordercolor="#666666" borderopacity="1" objecttolerance="10" gridtolerance="10" guidetolerance="10" inkscape:pageopacity="0" inkscape:pageshadow="2" inkscape:window-width="1920" inkscape:window-height="1009" id="namedview12" showgrid="false" inkscape:zoom="0.84890884" inkscape:cx="508.29957" inkscape:cy="494.75277" inkscape:window-x="0" inkscape:window-y="0" inkscape:window-maximized="1" inkscape:current-layer="svg10" showguides="true" inkscape:guide-bbox="true" inkscape:document-rotation="0" inkscape:pagecheckerboard="0"><sodipodi:guide position="0,1000" orientation="0,1" id="guide16" inkscape:label="" inkscape:locked="true" inkscape:color="rgb(0,0,255)" /><sodipodi:guide position="1763.3122,2036.1693" orientation="1000,0" id="guide18" /><sodipodi:guide position="0,200" orientation="0,1" id="guide20" inkscape:label="base" inkscape:locked="true" inkscape:color="rgb(0,0,255)" /><inkscape:grid type="xygrid" id="grid24" originx="-473.37552" originy="-489.69235" /><sodipodi:guide position="0,0" orientation="0,1" id="guide34" inkscape:label="bottom" inkscape:locked="true" inkscape:color="rgb(0,0,255)" /><sodipodi:guide position="225.05109,1693.3186" orientation="0,1" id="guide44" inkscape:label="" inkscape:locked="false" inkscape:color="rgb(0,0,255)" /><sodipodi:guide position="0,900" orientation="0,1" id="guide46" inkscape:label="" inkscape:locked="true" inkscape:color="rgb(0,0,255)" /><sodipodi:guide position="596.84334,645.62796" orientation="1,0" id="guide841" inkscape:label="width" />    <sodipodi:guide position="236.77454,799.74293" orientation="0,-1" id="guide853" /></sodipodi:namedview>
 <svg:defs id="defs4"><inkscape:path-effect effect="fillet_chamfer" id="path-effect855" is_visible="true" lpeversion="1" satellites_param="F,0,0,1,0,21.053378,0,1 @ F,0,0,1,0,21.053378,0,1 @ F,0,0,1,0,0,0,1 @ F,0,0,1,0,0,0,1 @ F,0,0,1,0,0,0,1 @ F,0,0,1,0,0,0,1 @ F,0,0,1,0,0,0,1 @ F,0,0,1,0,0,0,1 @ F,0,0,1,0,0,0,1 @ F,0,0,1,0,0,0,1 @ F,0,0,1,0,0,0,1 @ F,0,0,1,0,0,0,1 @ F,0,0,1,0,0,0,1 @ F,0,0,1,0,0,0,1 @ F,0,0,1,0,0,0,1 @ F,0,0,1,0,0,0,1 @ F,0,0,1,0,0,0,1 @ F,0,0,1,0,0,0,1 @ F,0,0,1,0,0,0,1 @ F,0,0,1,0,0,0,1 @ F,0,0,1,0,21.053378,0,1 @ F,0,0,1,0,21.053378,0,1 @ F,0,0,1,0,0,0,1 @ F,0,0,1,0,0,0,1 @ F,0,0,1,0,0,0,1 @ F,0,0,1,0,0,0,1 @ F,0,0,1,0,0,0,1 @ F,0,0,1,0,0,0,1 @ F,0,0,1,0,0,0,1 @ F,0,0,1,0,0,0,1 @ F,0,0,1,0,0,0,1 @ F,0,0,1,0,0,0,1 @ F,0,1,1,0,13.285186,0,1 @ F,0,1,1,0,13.285186,0,1 @ F,0,0,1,0,0,0,1 @ F,0,0,1,0,0,0,1 @ F,0,0,1,0,0,0,1 @ F,0,0,1,0,0,0,1 @ F,0,0,1,0,0,0,1 @ F,0,0,1,0,0,0,1 @ F,0,0,1,0,0,0,1 @ F,0,0,1,0,0,0,1 @ F,0,0,1,0,0,0,1" unit="px" method="auto" mode="F" radius="0" chamfer_steps="1" flexible="false" use_knot_distance="true" apply_no_radius="true" apply_with_radius="true" only_selected="true" hide_knots="false" /><inkscape:path-effect effect="fillet_chamfer" id="path-effect854" is_visible="true" lpeversion="1" satellites_param="F,0,0,1,0,26.153956,0,1 @ F,0,0,1,0,18.646389,0,1 @ F,0,0,1,0,0,0,1 @ F,0,0,1,0,0,0,1 @ F,0,0,1,0,0,0,1 @ F,0,0,1,0,0,0,1 @ F,0,0,1,0,0,0,1 @ F,0,0,1,0,0,0,1 @ F,0,0,1,0,0,0,1 @ F,0,0,1,0,0,0,1 @ F,0,0,1,0,0,0,1 @ F,0,0,1,0,0,0,1 @ F,0,0,1,0,0,0,1 @ F,0,0,1,0,0,0,1 @ F,0,0,1,0,0,0,1 @ F,0,0,1,0,0,0,1 @ F,0,0,1,0,0,0,1 @ F,0,0,1,0,0,0,1 @ F,0,0,1,0,0,0,1 @ F,0,0,1,0,30.187822,0,1 @ F,0,0,1,0,24.012867,0,1 @ F,0,0,1,0,0,0,1 @ F,0,0,1,0,0,0,1 @ F,0,0,1,0,0,0,1 @ F,0,0,1,0,0,0,1 @ F,0,0,1,0,0,0,1 @ F,0,0,1,0,0,0,1 @ F,0,0,1,0,0,0,1 @ F,0,0,1,0,0,0,1 @ F,0,0,1,0,0,0,1 @ F,0,1,1,0,41.669128,0,1 @ F,0,0,1,0,38.580374,0,1 @ F,0,0,1,0,0,0,1 @ F,0,0,1,0,0,0,1 @ F,0,0,1,0,0,0,1 @ F,0,0,1,0,0,0,1 @ F,0,0,1,0,0,0,1 @ F,0,0,1,0,0,0,1 @ F,0,0,1,0,0,0,1 @ F,0,0,1,0,0,0,1 @ F,0,0,1,0,0,0,1" unit="px" method="auto" mode="F" radius="0" chamfer_steps="1" flexible="false" use_knot_distance="true" apply_no_radius="true" apply_with_radius="true" only_selected="true" hide_knots="false" /><inkscape:path-effect effect="spiro" id="path-effect853" is_visible="true" lpeversion="1" /><inkscape:path-effect effect="spiro" id="path-effect928" is_visible="true" lpeversion="1" /><inkscape:path-effect effect="spiro" id="path-effect921" is_visible="true" lpeversion="1" /><inkscape:path-effect effect="spiro" id="path-effect917" is_visible="true" lpeversion="1" /><inkscape:path-effect effect="spiro" id="path-effect849" is_visible="true" lpeversion="1" /><inkscape:path-effect effect="spiro" id="path-effect851" is_visible="true" lpeversion="1" />
  <svg:style type="text/css" id="style2">
   
    .fil0 {fill:#EF7F1A;fill-rule:nonzero}
   
  </svg:style>
 <inkscape:path-effect effect="spiro" id="path-effect1214" is_visible="true" lpeversion="1" /><inkscape:path-effect effect="spiro" id="path-effect1195" is_visible="true" lpeversion="1" /><inkscape:path-effect effect="spiro" id="path-effect992" is_visible="true" lpeversion="1" /><inkscape:path-effect effect="spiro" id="path-effect1060" is_visible="true" lpeversion="1" /><inkscape:path-effect effect="spiro" id="path-effect1047" is_visible="true" lpeversion="1" /><inkscape:path-effect effect="spiro" id="path-effect1085" is_visible="true" lpeversion="1" /><inkscape:path-effect effect="spiro" id="path-effect1286" is_visible="true" lpeversion="1" /><inkscape:path-effect effect="spiro" id="path-effect117" is_visible="true" lpeversion="1" /></svg:defs>
 
<svg:g id="path115"><svg:path style="color:#000000;fill:#1a5fb4;fill-rule:nonzero;stroke-linecap:round;stroke-linejoin:round;-inkscape-stroke:none" d="m 518.87891,151.57422 c -7.11479,-0.008 -14.16436,1.54714 -20.35938,4.39648 l -89.40039,41.11914 c -12.42977,5.71696 -22.92775,17.365 -26.31641,31.18164 -3.38865,13.81665 0.34966,28.47011 8.22657,39.28516 21.21812,29.13263 39.09481,60.72863 53.11718,93.91797 35.96105,85.11561 46.24182,181.24372 32.10352,273.28906 -1.89103,12.31126 -4.20758,22.00635 -7.57422,28.25195 -1.6494,3.05988 -3.54959,5.36029 -5.18555,6.74024 -1.55482,1.31151 -3.173,1.9622 -3.88281,2.09766 -0.65324,0.12465 -2.1315,0.13527 -3.75976,-0.34766 -1.70074,-0.50443 -3.90272,-1.59614 -6.13477,-3.32227 -4.55104,-3.51949 -9.4873,-9.99394 -14.18555,-18.72851 -12.03893,-22.38172 -18.78046,-49.24015 -23.2207,-77.85547 -4.4492,-28.67306 -6.72907,-59.48617 -12.41016,-91.60938 -7.20997,-40.76821 -19.6491,-80.56218 -36.91992,-118.17773 -9.98469,-21.7465 -40.51455,-30.24482 -60.30664,-17.63672 l -60.13867,38.31055 c -18.46671,11.76379 -25.32219,26.90137 -23.83203,47.80469 0.79948,11.2148 1.05231,22.4713 0.75586,33.70898 -0.80482,30.50838 -5.69775,61.52306 -12.66797,92.6875 -8.06587,36.06315 -18.87939,69.533 -37.91211,94.36523 -4.31029,5.62369 -8.27364,9.58701 -11.47461,11.71289 -2.92685,1.94384 -5.62711,2.35791 -6.05469,2.32618 -0.48369,-0.0359 -3.70316,-1.18158 -6.64648,-4.28125 -3.27204,-3.44586 -6.84423,-9.37386 -10.54883,-17.36133 -20.04864,-43.2268 -26.28356,-93.73653 -23.4082,-144.21485 2.70193,-47.43375 13.04146,-94.96698 27.65429,-141.68359 9.76013,-31.20271 21.33352,-61.84353 34.63868,-91.70898 11.09092,-24.89528 -3.93051,-58.31343 -30.46289,-66.01368 L 64.998047,177.31445 c -26.67985,-7.74304 -56.9884044,10.69274 -62.013672,38.24414 -12.7325612,69.80721 -20.695371,140.47918 -23.808594,211.3711 -3.460225,78.79358 -0.971063,159.28825 15.7695315,238.40039 7.4543159,35.22735 18.3307815,73.52679 43.2734375,106.63672 12.530131,16.63302 28.474925,31.53236 47.986328,42.09765 19.631592,10.63037 42.377422,16.51221 65.974612,14.79102 28.60752,-2.08665 53.72294,-14.88114 73.51172,-31.73633 19.57856,-16.67614 33.73449,-36.84801 45.08789,-56.74805 15.49481,-27.15903 26.706,-55.60622 35.39843,-84.48632 7.45856,25.04554 15.90623,50.14365 26.48243,74.91015 8.10611,18.98226 18.05673,39.494 33.93359,57.96485 16.12495,18.75947 38.32506,34.87954 66.12891,39.86328 26.0422,4.66797 51.28215,-1.54998 72.26757,-13.125 C 525.69798,804.07619 541.71858,787.97639 554.5,771.25977 590.70452,723.90844 605.35383,666.36296 610.96289,611.75391 621.96576,504.6314 600.97834,400.27529 582.74414,300.4707 576.03272,263.73588 569.542,226.96076 563.26953,190.14844 c -2.28821,-13.42921 -10.74659,-26.7655 -23.64648,-33.58399 -6.44995,-3.40924 -13.62936,-4.98208 -20.74414,-4.99023 z m -11.6211,66.41992 c 5.36181,31.10878 10.79141,62.2063 16.46485,93.25977 18.33463,100.35431 37.34165,199.08451 27.55468,294.36914 -4.94132,48.10811 -17.92791,94.51678 -44.4414,129.19336 -9.2692,12.12304 -19.74327,22.03061 -30.82422,28.14257 -10.80327,5.95881 -23.01118,8.34272 -32.70313,6.60547 -10.41906,-1.86758 -22.02518,-9.22525 -31.21289,-19.91406 -9.43579,-10.97744 -17.11159,-25.68808 -24.25586,-42.41797 C 367.06074,658.57356 354.18877,604.94446 339.70508,550 c -2.20693,-8.37207 -4.57846,-16.69982 -6.84961,-25.05469 2.13249,-14.39081 4.12736,-28.80106 6.12695,-43.21094 0.5777,2.9086 1.31375,5.78552 1.83008,8.70508 4.97981,28.1579 7.26568,58.54177 12.20312,90.36133 4.9464,31.8773 12.70993,65.54566 29.66993,97.07617 6.74335,12.53665 15.76692,26.51333 30.32226,37.76953 7.32114,5.66172 15.90198,10.45325 25.7793,13.38282 9.9498,2.95106 20.85713,3.90077 32.06641,1.76172 12.27145,-2.34176 22.7754,-7.96248 31.32226,-15.17188 8.46573,-7.14096 14.6951,-15.55963 19.31641,-24.13281 9.17477,-17.02053 11.94074,-33.79989 14.0625,-47.61328 15.74611,-102.51278 4.50769,-209.54479 -36.13867,-305.75 C 485.61709,305.4626 468.3562,274.34283 448.3418,245.09375 Z M 60.029297,238.3457 112.9668,253.71094 c -12.02269,28.09473 -22.712423,56.76024 -31.835941,85.92773 -15.66083,50.067 -27.22588,102.37357 -30.291015,156.1836 -3.278837,57.56166 3.396072,117.9296 28.878906,172.87304 4.754494,10.25115 10.898958,22.29635 21.4707,33.42969 10.90047,11.47952 26.15083,21.34857 45.7168,22.80078 17.1149,1.27029 31.9609,-4.39161 43.6875,-12.17969 11.45248,-7.60602 19.51176,-16.85744 25.90234,-25.19531 25.14515,-32.80719 37.3793,-70.48523 45.99805,-106.31641 -9.20698,46.65037 -21.88389,90.93742 -43.83008,129.4043 -9.27654,16.25975 -19.76478,30.48643 -31.8789,40.80469 -11.90392,10.13922 -26.05577,16.62843 -38.96875,17.57031 -10.62017,0.77464 -22.50345,-2.00491 -33.04102,-7.71094 -10.65776,-5.7711 -20.52161,-14.66776 -28.634765,-25.4375 C 69.796709,714.16964 60.397278,684.81088 53.646484,652.9082 38.368879,580.70981 35.793955,505.28106 39.119141,429.5625 41.934155,365.46116 49.02967,301.5607 60.029297,238.3457 Z M 279.0918,430.33398 c -0.0208,0.0547 -0.28818,0.27892 -0.32813,0.32813 -0.002,-0.0384 -0.004,-0.0768 -0.006,-0.11524 z" id="path22283" /></svg:g></svg:svg>
